X:1
T:Thirds - Page 2  "Arr. J. Johnson 1988"
T:Thirds - Page 2  "Arr. J. Johnson 1988"
T:Johann Pachelbel
C:Johann Pachelbel
L:1/8
Q:1/8=80
M:4/4
K:C
V:1 treble 
V:1
 ddedccdc | BBABccfe | ddegffAf | dgfgeAGA || fAAAAAAA | ffffffAA | GGGddddd | ddBBAAec || %8
 Afffeeee | ddddaaAA | BBBBAAAA | BBBBaccc || dd/e/fdcc/d/ec | BB/c/dBca/g/fe | dg/f/egfd/e/fa | %15
 gB/A/Gfea/g/fe || fd/c/dfaA/B/cA | fd/e/fdff/e/dc | BB/A/Bcdf/e/df | gd/c/BBAeAA || A4- A2 A2 | %21
 d4- d2 A2 | G4 A4 | G2 d2{gef} ed-dc | d2 d2 c4 | B4 A4 | d3 e f4 | B4 e2 e2 || f3 ffgfe | %29
 d3 ddedc | B4 d4 | d"^cnat"cB"^cnat"c A3 A | A3 aagag | f3 ffgfe || d"^cnat"cB"^cnat"c A3 A | %35
 G2 d2 c3 c | d2 d2- d2 c2- | c2 B2- B2 A2- | A2 g2- g2 f2- | f3 e e4 | f2 f2- f2 e2 | %41
 d2 d2- d2"^cnat" c2 || B4 d2 A2 | B4 A4 | A4 A3 g | f4 f3 e | d4- d2 d2 | d4 c4 | d4"^hrst" |] %49

